packages/components/src/product-icon/images/jetpack-anti-spam-v2-darkblue.svg

<svg width="55" height="55" viewBox="0 0 55 55" fill="none" xmlns="http://www.w3.org/2000/svg">
<ellipse cx="27.5" cy="27.7024" rx="27.5" ry="27.2308" fill="#2271B1"/>
<mask id="mask0" mask-type="alpha" maskUnits="userSpaceOnUse" x="15" y="14" width="26" height="25">
<path fill-rule="evenodd" clip-rule="evenodd" d="M23 19.9717C23 17.2103 25.2386 14.9717 28 14.9717C30.7614 14.9717 33 17.2103 33 19.9717H23ZM40.5 29.9717H35.5V31.2217C35.4975 31.6408 35.4599 32.0589 35.3875 32.4717H36.75C38.1307 32.4717 39.25 33.591 39.25 34.9717V37.4717H36.75V34.9717H34.4875C33.3697 36.9029 31.45 38.2362 29.25 38.6092V24.9717H26.75V38.6092C24.55 38.2362 22.6303 36.9029 21.5125 34.9717H19.25V37.4717H16.75V34.9717C16.75 33.591 17.8693 32.4717 19.25 32.4717H20.6125C20.5401 32.0589 20.5025 31.6408 20.5 31.2217V29.9717H15.5V27.4717H20.5V24.9717H19.25C17.8693 24.9717 16.75 23.8524 16.75 22.4717V19.9717H19.25V22.4717H36.75V19.9717H39.25V22.4717C39.25 23.8524 38.1307 24.9717 36.75 24.9717H35.5V27.4717H40.5V29.9717Z" fill="#fff"/>
</mask>
<g mask="url(#mask0)">
<rect x="13" y="12.4717" width="30" height="30" fill="#fff"/>
</g>
</svg>

<svg width="55" height="55" fill="none" xmlns="http://www.w3.org/2000/svg"><ellipse cx="27.5" cy="27.702" rx="27.5" ry="27.231" fill="#2271B1"/><mask id="a" maskUnits="userSpaceOnUse" x="15" y="14" width="26" height="25"><path fill-rule="evenodd" clip-rule="evenodd" d="M23 19.972a5 5 0 0110 0H23zm17.5 10h-5v1.25c-.002.419-.04.837-.112 1.25h1.362a2.5 2.5 0 012.5 2.5v2.5h-2.5v-2.5h-2.263a7.5 7.5 0 01-5.237 3.637V24.972h-2.5v13.637a7.5 7.5 0 01-5.238-3.637H19.25v2.5h-2.5v-2.5a2.5 2.5 0 012.5-2.5h1.363a7.494 7.494 0 01-.113-1.25v-1.25h-5v-2.5h5v-2.5h-1.25a2.5 2.5 0 01-2.5-2.5v-2.5h2.5v2.5h17.5v-2.5h2.5v2.5a2.5 2.5 0 01-2.5 2.5H35.5v2.5h5v2.5z" fill="#fff"/></mask><g mask="url(#a)"><path fill="#fff" d="M13 12.472h30v30H13z"/></g></svg>
